X:1
T:San Jose, 87.87.87 D
T:San Jose, 87.87.87 D
T:Susan M. Orwig Hoffman, 1883
T:Public Domain Courtesy of the Cyber Hymnal™
C:Susan M. Orwig Hoffman, 1883
Z:Public Domain
Z:Courtesy of the Cyber Hymnal™
%%score ( 1 2 ) ( 3 4 )
L:1/8
Q:1/4=110
M:4/4
K:Ab
V:1 treble 
V:2 treble 
V:3 bass 
V:4 bass 
V:1
 [CA]3 [CA] [CA]2 [CE]2 | [Ec]3 [Ec] [Ec]2 [CA]2 | [EB]3 [EB] [EB][EB][CA][EB] | [Ec]6 z2 | %4
 [Ee]2 [Ec]2 [CA]2 [CE]2 | [DF]2 [FA]2 [Fd]2 [Fd]2 | [Ec]3 [Ec] (cd) ([Ec][DB]) | %7
 [CA]2 [B,G]2 [CA]4 | [DF]2 [DF]2 [DF]2 [DF]2 | [CE]2 [CE]2 [CE]2 [CA]2 | %10
 [EB]3 [EB] [EB][EB][CA][EB] | [Ec]6 z2 | [DF]2 [DF]2 [DF]2 [DF]2 | [CE]2 [CE]2 [CE]2 [CE]2 | %14
 [DG]3 [DG] [DG][DG][DF][DG] | [CA]6 z2 | [CA]2 [CA]2 [CA]2 [CE]2 | [Ec]2 [Ec]2 [Ec]2 [CA]2 | %18
 [Ee]3 [Ee] [Ee][Ee][Ee][Ee] | [Ee]8 | [Ee]2 [Ec]2 [CA]2 [CE]2 | [DF]2 [FA]2 [Fd]2 [Fd]2 | %22
 [Ec]3 [Ec] (cd) ([Ec][DB]) | [CA]2 [B,G]2 [CA]4 |] %24
V:2
 x8 | x8 | x8 | x8 | x8 | x8 | x4 E2 x2 | x8 | x8 | x8 | x8 | x8 | x8 | x8 | x8 | x8 | x8 | x8 | %18
 x8 | x8 | x8 | x8 | x4 E2 x2 | x8 |] %24
V:3
 [A,,E,]3 [A,,E,] [A,,E,]2 [A,,A,]2 | [A,,A,]3 [A,,A,] [A,,A,]2 [A,,E,]2 | %2
 [E,G,]3 [E,G,] [E,G,][E,G,][F,A,][E,G,] | [A,,A,]6 z2 | [A,,C]2 [A,,A,]2 [A,,E,]2 [A,,A,]2 | %5
 [D,A,]2 [D,D]2 [D,A,]2 [D,A,]2 | [A,,A,]3 [A,,A,] ([A,,A,][B,,G,]) ([C,A,][D,F,]) | %7
 E,2 E,2 [A,,E,]4 | [D,A,]2 [D,A,]2 [D,A,]2 [D,A,]2 | [A,,A,]2 [A,,A,]2 [A,,A,]2 [A,,A,]2 | %10
 [E,G,]3 [E,G,] [E,G,][E,G,][F,A,][E,G,] | [A,,A,]6 z2 | [D,A,]2 [D,A,]2 [D,A,]2 [D,A,]2 | %13
 [A,,A,]2 [A,,A,]2 [A,,A,]2 [A,,A,]2 | [E,B,]3 [E,B,] [E,B,][E,B,][E,B,][E,B,] | [A,,A,]6 z2 | %16
 [A,,E,]2 [A,,E,]2 [A,,E,]2 [A,,A,]2 | [A,,A,]2 [A,,A,]2 [A,,A,]2 [A,,E,]2 | %18
 [A,C]3 [A,C] [A,C][A,C][A,C][A,C] | [A,C]8 | [A,,C]2 [A,,A,]2 [A,,E,]2 [A,,A,]2 | %21
 [D,A,]2 [D,D]2 [D,A,]2 [D,A,]2 | [A,,A,]3 [A,,A,] ([A,,A,][B,,G,]) ([C,A,][D,F,]) | %23
 E,2 E,2 [A,,E,]4 |] %24
V:4
 x8 | x8 | x8 | x8 | x8 | x8 | x8 | E,2 E,2 x4 | x8 | x8 | x8 | x8 | x8 | x8 | x8 | x8 | x8 | x8 | %18
 x8 | x8 | x8 | x8 | x8 | E,2 E,2 x4 |] %24

